SVG_Azure_Grouped/Dynamics 365/Application Customer Insights.svg

<?xml version="1.0" encoding="UTF-8" standalone="no"?>
<!-- Generated by Microsoft Visio, SVG Export Application Customer Insights.svg Page-1 -->

<svg
   xmlns:dc="http://purl.org/dc/elements/1.1/"
   xmlns:cc="http://creativecommons.org/ns#"
   xmlns:rdf="http://www.w3.org/1999/02/22-rdf-syntax-ns#"
   xmlns:svg="http://www.w3.org/2000/svg"
   xmlns="http://www.w3.org/2000/svg"
   xmlns:sodipodi="http://sodipodi.sourceforge.net/DTD/sodipodi-0.dtd"
   xmlns:inkscape="http://www.inkscape.org/namespaces/inkscape"
   width="0.74804115in"
   height="0.78745776in"
   viewBox="0 0 53.858932 56.6971"
   xml:space="preserve"
   class="st7"
   version="1.1"
   id="svg88"
   sodipodi:docname="Application Customer Insights.svg"
   style="font-size:12px;overflow:visible;color-interpolation-filters:sRGB;fill:none;fill-rule:evenodd;stroke-linecap:square;stroke-miterlimit:3"
   inkscape:version="0.92.5 (2060ec1f9f, 2020-04-08)"><metadata
   id="metadata92"><rdf:RDF><cc:Work
       rdf:about=""><dc:format>image/svg+xml</dc:format><dc:type
         rdf:resource="http://purl.org/dc/dcmitype/StillImage" /></cc:Work></rdf:RDF></metadata><sodipodi:namedview
   pagecolor="#ffffff"
   bordercolor="#666666"
   borderopacity="1"
   objecttolerance="10"
   gridtolerance="10"
   guidetolerance="10"
   inkscape:pageopacity="0"
   inkscape:pageshadow="2"
   inkscape:window-width="640"
   inkscape:window-height="480"
   id="namedview90"
   showgrid="false"
   inkscape:zoom="1.8365233"
   inkscape:cx="35.905404"
   inkscape:cy="18.900351"
   inkscape:window-x="0"
   inkscape:window-y="0"
   inkscape:window-maximized="0"
   inkscape:current-layer="svg88" />
	<style
   type="text/css"
   id="style2">
	<![CDATA[
		.st1 {fill:url(#grad0-7);stroke:none;stroke-linecap:butt;stroke-width:0.75}
		.st2 {fill:#000000;fill-opacity:0.32;stroke:none;stroke-linecap:butt;stroke-width:0.75}
		.st3 {fill:#000000;fill-opacity:0.24;stroke:none;stroke-linecap:butt;stroke-width:0.75}
		.st4 {fill:url(#grad0-15);stroke:none;stroke-linecap:butt;stroke-width:0.75}
		.st5 {fill:url(#grad0-23);stroke:none;stroke-linecap:butt;stroke-width:0.75}
		.st6 {fill:url(#grad0-31);stroke:none;stroke-linecap:butt;stroke-width:0.75}
		.st7 {fill:none;fill-rule:evenodd;font-size:12px;overflow:visible;stroke-linecap:square;stroke-miterlimit:3}
	]]>
	</style>

	<defs
   id="Patterns_And_Gradients">
		<linearGradient
   id="grad0-7"
   x1="0"
   y1="73.38766"
   x2="24.347626"
   y2="73.38766"
   gradientTransform="scale(1.0140619,0.9861331)"
   gradientUnits="userSpaceOnUse">
			<stop
   offset="0"
   stop-color="#2064ae"
   stop-opacity="1"
   id="stop4" />
			<stop
   offset="1"
   stop-color="#27518a"
   stop-opacity="1"
   id="stop6" />
		</linearGradient>
		<linearGradient
   id="grad0-15"
   x1="0"
   y1="63.035436"
   x2="37.599902"
   y2="63.035436"
   gradientTransform="scale(1.0441517,0.95771527)"
   gradientUnits="userSpaceOnUse">
			<stop
   offset="0"
   stop-color="#7cecff"
   stop-opacity="1"
   id="stop9" />
			<stop
   offset="1"
   stop-color="#50e6ff"
   stop-opacity="1"
   id="stop11" />
		</linearGradient>
		<linearGradient
   id="grad0-23"
   x1="0"
   y1="63.035436"
   x2="37.599902"
   y2="63.035436"
   gradientTransform="scale(1.0441517,0.95771527)"
   gradientUnits="userSpaceOnUse">
			<stop
   offset="0"
   stop-color="#40c4f5"
   stop-opacity="1"
   id="stop14" />
			<stop
   offset="1"
   stop-color="#0095e6"
   stop-opacity="1"
   id="stop16" />
		</linearGradient>
		<linearGradient
   id="grad0-31"
   x1="0"
   y1="45.566646"
   x2="33.025218"
   y2="45.566646"
   gradientTransform="scale(0.81543747,1.2263356)"
   gradientUnits="userSpaceOnUse">
			<stop
   offset="0"
   stop-color="#0095e6"
   stop-opacity="1"
   id="stop19" />
			<stop
   offset="1"
   stop-color="#0078d4"
   stop-opacity="1"
   id="stop21" />
		</linearGradient>
	</defs>
	<g
   id="g86"
   transform="translate(-5.3859292,-5.6672)">
		<title
   id="title25">Page-1</title>
		<g
   id="group21383-1"
   transform="translate(5.38583,-34.0157)">
			<title
   id="title27">Application Customer Insights.21383</title>
			<g
   id="group21384-2">
				<title
   id="title29">Sheet.21384</title>
				<g
   id="group21385-3">
					<title
   id="title31">Sheet.21385</title>
					<g
   id="shape21386-4"
   transform="translate(14.5866,-16.1981)">
						<title
   id="title33">Sheet.21386</title>
						<path
   d="m 12.34,72.37 c 7.24,2.98 12.35,10.28 12.35,18.8 0,0.24 -0.01,0.48 -0.02,0.72 C 21.3,94.7 17.01,96.38 12.34,96.38 7.67,96.38 3.38,94.7 0.01,91.89 0,91.65 0,91.41 0,91.17 0,82.65 5.11,75.35 12.34,72.37 Z"
   class="st1"
   id="path35"
   inkscape:connector-curvature="0"
   style="fill:url(#grad0-7);stroke:none;stroke-width:0.75;stroke-linecap:butt" />
					</g>
					<g
   id="shape21387-8"
   transform="translate(7.29331,-19.5301)">
						<title
   id="title38">Sheet.21387</title>
						<path
   d="M 39.26,79.9 C 35.89,77.09 31.6,75.41 26.93,75.41 16.08,75.41 7.29,84.48 7.29,95.66 7.29,95.9 7.3,96.14 7.31,96.38 2.85,92.67 0,86.99 0,80.62 0,69.44 8.79,60.37 19.64,60.37 c 10.61,0 19.25,8.68 19.62,19.53 z"
   class="st2"
   id="path40"
   inkscape:connector-curvature="0"
   style="fill:#000000;fill-opacity:0.31999996;stroke:none;stroke-width:0.75;stroke-linecap:butt" />
					</g>
					<g
   id="shape21388-10"
   transform="translate(7.29331,-20.4672)">
						<title
   id="title43">Sheet.21388</title>
						<path
   d="M 39.26,79.9 C 35.89,77.09 31.6,75.41 26.93,75.41 16.08,75.41 7.29,84.48 7.29,95.66 7.29,95.9 7.3,96.14 7.31,96.38 2.85,92.67 0,86.99 0,80.62 0,69.44 8.79,60.37 19.64,60.37 c 10.61,0 19.25,8.68 19.62,19.53 z"
   class="st3"
   id="path45"
   inkscape:connector-curvature="0"
   style="fill:#000000;fill-opacity:0.23999999;stroke:none;stroke-width:0.75;stroke-linecap:butt" />
					</g>
					<g
   id="shape21389-12"
   transform="translate(7.29331,-20.6871)">
						<title
   id="title48">Sheet.21389</title>
						<path
   d="M 39.26,79.9 C 35.89,77.09 31.6,75.41 26.93,75.41 16.08,75.41 7.29,84.48 7.29,95.66 7.29,95.9 7.3,96.14 7.31,96.38 2.85,92.67 0,86.99 0,80.62 0,69.44 8.79,60.37 19.64,60.37 c 10.61,0 19.25,8.68 19.62,19.53 z"
   class="st4"
   id="path50"
   inkscape:connector-curvature="0"
   style="fill:url(#grad0-15);stroke:none;stroke-width:0.75;stroke-linecap:butt" />
					</g>
					<g
   id="shape21390-16">
						<title
   id="title53">Sheet.21390</title>
						<path
   d="M 39.26,76.85 C 35.89,79.66 31.6,81.34 26.93,81.34 16.08,81.34 7.29,72.27 7.29,61.09 7.29,60.85 7.3,60.61 7.31,60.37 2.85,64.08 0,69.76 0,76.13 c 0,11.18 8.79,20.25 19.64,20.25 10.61,0 19.25,-8.68 19.62,-19.53 z"
   class="st2"
   id="path55"
   inkscape:connector-curvature="0"
   style="fill:#000000;fill-opacity:0.31999996;stroke:none;stroke-width:0.75;stroke-linecap:butt" />
					</g>
					<g
   id="shape21391-18"
   transform="translate(0,-0.937166)">
						<title
   id="title58">Sheet.21391</title>
						<path
   d="M 39.26,76.85 C 35.89,79.66 31.6,81.34 26.93,81.34 16.08,81.34 7.29,72.27 7.29,61.09 7.29,60.85 7.3,60.61 7.31,60.37 2.85,64.08 0,69.76 0,76.13 c 0,11.18 8.79,20.25 19.64,20.25 10.61,0 19.25,-8.68 19.62,-19.53 z"
   class="st3"
   id="path60"
   inkscape:connector-curvature="0"
   style="fill:#000000;fill-opacity:0.23999999;stroke:none;stroke-width:0.75;stroke-linecap:butt" />
					</g>
					<g
   id="shape21392-20"
   transform="translate(0,-1.15717)">
						<title
   id="title63">Sheet.21392</title>
						<path
   d="M 39.26,76.85 C 35.89,79.66 31.6,81.34 26.93,81.34 16.08,81.34 7.29,72.27 7.29,61.09 7.29,60.85 7.3,60.61 7.31,60.37 2.85,64.08 0,69.76 0,76.13 c 0,11.18 8.79,20.25 19.64,20.25 10.61,0 19.25,-8.68 19.62,-19.53 z"
   class="st5"
   id="path65"
   inkscape:connector-curvature="0"
   style="fill:url(#grad0-23);stroke:none;stroke-width:0.75;stroke-linecap:butt" />
					</g>
					<g
   id="shape21393-24"
   transform="translate(26.9291,-1.73549e-4)">
						<title
   id="title68">Sheet.21393</title>
						<path
   d="M 0,94.94 C 7.23,91.95 12.34,84.66 12.34,76.13 12.34,67.61 7.23,60.31 0,57.33 2.25,56.4 4.72,55.88 7.29,55.88 c 10.85,0 19.64,9.07 19.64,20.25 0,11.18 -8.79,20.25 -19.64,20.25 -2.57,0 -5.04,-0.51 -7.29,-1.44 z"
   class="st2"
   id="path70"
   inkscape:connector-curvature="0"
   style="fill:#000000;fill-opacity:0.31999996;stroke:none;stroke-width:0.75;stroke-linecap:butt" />
					</g>
					<g
   id="shape21394-26"
   transform="translate(26.9291,-0.937339)">
						<title
   id="title73">Sheet.21394</title>
						<path
   d="M 0,94.94 C 7.23,91.95 12.34,84.66 12.34,76.13 12.34,67.61 7.23,60.31 0,57.33 2.25,56.4 4.72,55.88 7.29,55.88 c 10.85,0 19.64,9.07 19.64,20.25 0,11.18 -8.79,20.25 -19.64,20.25 -2.57,0 -5.04,-0.51 -7.29,-1.44 z"
   class="st3"
   id="path75"
   inkscape:connector-curvature="0"
   style="fill:#000000;fill-opacity:0.23999999;stroke:none;stroke-width:0.75;stroke-linecap:butt" />
					</g>
					<g
   id="shape21395-28"
   transform="translate(26.9291,-1.15717)">
						<title
   id="title78">Sheet.21395</title>
						<path
   d="M 0,94.94 C 7.23,91.95 12.34,84.66 12.34,76.13 12.34,67.61 7.23,60.31 0,57.33 2.25,56.4 4.72,55.88 7.29,55.88 c 10.85,0 19.64,9.07 19.64,20.25 0,11.18 -8.79,20.25 -19.64,20.25 -2.57,0 -5.04,-0.51 -7.29,-1.44 z"
   class="st6"
   id="path80"
   inkscape:connector-curvature="0"
   style="fill:url(#grad0-31);stroke:none;stroke-width:0.75;stroke-linecap:butt" />
					</g>
				</g>
			</g>
		</g>
	</g>
</svg>

<?xml version="1.0" encoding="UTF-8" standalone="no"?>
<!DOCTYPE svg PUBLIC "-//W3C//DTD SVG 1.1//EN" "http://www.w3.org/Graphics/SVG/1.1/DTD/svg11.dtd">
<!-- Generated by Microsoft Visio, SVG Export Application Customer Insights.svg Page-1 -->
<svg xmlns="http://www.w3.org/2000/svg" xmlns:xlink="http://www.w3.org/1999/xlink" xmlns:ev="http://www.w3.org/2001/xml-events"
		width="0.897638in" height="1.33858in" viewBox="0 0 64.6299 96.378" xml:space="preserve" color-interpolation-filters="sRGB"
		class="st7">
	<style type="text/css">
	<![CDATA[
		.st1 {fill:url(#grad0-7);stroke:none;stroke-linecap:butt;stroke-width:0.75}
		.st2 {fill:#000000;fill-opacity:0.32;stroke:none;stroke-linecap:butt;stroke-width:0.75}
		.st3 {fill:#000000;fill-opacity:0.24;stroke:none;stroke-linecap:butt;stroke-width:0.75}
		.st4 {fill:url(#grad0-15);stroke:none;stroke-linecap:butt;stroke-width:0.75}
		.st5 {fill:url(#grad0-23);stroke:none;stroke-linecap:butt;stroke-width:0.75}
		.st6 {fill:url(#grad0-31);stroke:none;stroke-linecap:butt;stroke-width:0.75}
		.st7 {fill:none;fill-rule:evenodd;font-size:12px;overflow:visible;stroke-linecap:square;stroke-miterlimit:3}
	]]>
	</style>

	<defs id="Patterns_And_Gradients">
		<linearGradient id="grad0-7" x1="0" y1="0" x2="1" y2="0" gradientTransform="rotate(46.452466990374 0.5 0.5)">
			<stop offset="0" stop-color="#2064ae" stop-opacity="1"/>
			<stop offset="1" stop-color="#27518a" stop-opacity="1"/>
		</linearGradient>
		<linearGradient id="grad0-15" x1="0" y1="0" x2="1" y2="0" gradientTransform="rotate(69.601249274264 0.5 0.5)">
			<stop offset="0" stop-color="#7cecff" stop-opacity="1"/>
			<stop offset="1" stop-color="#50e6ff" stop-opacity="1"/>
		</linearGradient>
		<linearGradient id="grad0-23" x1="0" y1="0" x2="1" y2="0" gradientTransform="rotate(47.401291097467 0.5 0.5)">
			<stop offset="0" stop-color="#40c4f5" stop-opacity="1"/>
			<stop offset="1" stop-color="#0095e6" stop-opacity="1"/>
		</linearGradient>
		<linearGradient id="grad0-31" x1="0" y1="0" x2="1" y2="0" gradientTransform="rotate(50.536989109225 0.5 0.5)">
			<stop offset="0" stop-color="#0095e6" stop-opacity="1"/>
			<stop offset="1" stop-color="#0078d4" stop-opacity="1"/>
		</linearGradient>
	</defs>
	<g>
		<title>Page-1</title>
		<g id="group20908-1" transform="translate(5.38583,-34.0157)">
			<title>Application Customer Insights.20908</title>
			<g id="group20909-2">
				<title>Sheet.20909</title>
				<g id="group20910-3">
					<title>Sheet.20910</title>
					<g id="shape20911-4" transform="translate(14.5866,-16.1981)">
						<title>Sheet.20911</title>
						<path d="M12.34 72.37 C19.58 75.35 24.69 82.65 24.69 91.17 C24.69 91.41 24.68 91.65 24.67 91.89 C21.3 94.7
									 17.01 96.38 12.34 96.38 C7.67 96.38 3.38 94.7 0.01 91.89 C0 91.65 0 91.41 0 91.17 C0 82.65 5.11
									 75.35 12.34 72.37 Z" class="st1"/>
					</g>
					<g id="shape20912-8" transform="translate(7.29331,-19.5301)">
						<title>Sheet.20912</title>
						<path d="M39.26 79.9 C35.89 77.09 31.6 75.41 26.93 75.41 C16.08 75.41 7.29 84.48 7.29 95.66 C7.29 95.9 7.3
									 96.14 7.31 96.38 C2.85 92.67 0 86.99 0 80.62 C0 69.44 8.79 60.37 19.64 60.37 C30.25 60.37 38.89
									 69.05 39.26 79.9 Z" class="st2"/>
					</g>
					<g id="shape20913-10" transform="translate(7.29331,-20.4672)">
						<title>Sheet.20913</title>
						<path d="M39.26 79.9 C35.89 77.09 31.6 75.41 26.93 75.41 C16.08 75.41 7.29 84.48 7.29 95.66 C7.29 95.9 7.3
									 96.14 7.31 96.38 C2.85 92.67 0 86.99 0 80.62 C0 69.44 8.79 60.37 19.64 60.37 C30.25 60.37 38.89
									 69.05 39.26 79.9 Z" class="st3"/>
					</g>
					<g id="shape20914-12" transform="translate(7.29331,-20.6871)">
						<title>Sheet.20914</title>
						<path d="M39.26 79.9 C35.89 77.09 31.6 75.41 26.93 75.41 C16.08 75.41 7.29 84.48 7.29 95.66 C7.29 95.9 7.3
									 96.14 7.31 96.38 C2.85 92.67 0 86.99 0 80.62 C0 69.44 8.79 60.37 19.64 60.37 C30.25 60.37 38.89
									 69.05 39.26 79.9 Z" class="st4"/>
					</g>
					<g id="shape20915-16">
						<title>Sheet.20915</title>
						<path d="M39.26 76.85 C35.89 79.66 31.6 81.34 26.93 81.34 C16.08 81.34 7.29 72.27 7.29 61.09 C7.29 60.85
									 7.3 60.61 7.31 60.37 C2.85 64.08 0 69.76 0 76.13 C0 87.31 8.79 96.38 19.64 96.38 C30.25 96.38
									 38.89 87.7 39.26 76.85 Z" class="st2"/>
					</g>
					<g id="shape20916-18" transform="translate(-2.75779E-13,-0.937166)">
						<title>Sheet.20916</title>
						<path d="M39.26 76.85 C35.89 79.66 31.6 81.34 26.93 81.34 C16.08 81.34 7.29 72.27 7.29 61.09 C7.29 60.85
									 7.3 60.61 7.31 60.37 C2.85 64.08 0 69.76 0 76.13 C0 87.31 8.79 96.38 19.64 96.38 C30.25 96.38
									 38.89 87.7 39.26 76.85 Z" class="st3"/>
					</g>
					<g id="shape20917-20" transform="translate(-2.75779E-13,-1.15717)">
						<title>Sheet.20917</title>
						<path d="M39.26 76.85 C35.89 79.66 31.6 81.34 26.93 81.34 C16.08 81.34 7.29 72.27 7.29 61.09 C7.29 60.85
									 7.3 60.61 7.31 60.37 C2.85 64.08 0 69.76 0 76.13 C0 87.31 8.79 96.38 19.64 96.38 C30.25 96.38
									 38.89 87.7 39.26 76.85 Z" class="st5"/>
					</g>
					<g id="shape20918-24" transform="translate(26.9291,-0.000173549)">
						<title>Sheet.20918</title>
						<path d="M0 94.94 C7.23 91.95 12.34 84.66 12.34 76.13 C12.34 67.61 7.23 60.31 0 57.33 C2.25 56.4 4.72 55.88
									 7.29 55.88 C18.14 55.88 26.93 64.95 26.93 76.13 C26.93 87.31 18.14 96.38 7.29 96.38 C4.72 96.38
									 2.25 95.87 0 94.94 Z" class="st2"/>
					</g>
					<g id="shape20919-26" transform="translate(26.9291,-0.937339)">
						<title>Sheet.20919</title>
						<path d="M0 94.94 C7.23 91.95 12.34 84.66 12.34 76.13 C12.34 67.61 7.23 60.31 0 57.33 C2.25 56.4 4.72 55.88
									 7.29 55.88 C18.14 55.88 26.93 64.95 26.93 76.13 C26.93 87.31 18.14 96.38 7.29 96.38 C4.72 96.38
									 2.25 95.87 0 94.94 Z" class="st3"/>
					</g>
					<g id="shape20920-28" transform="translate(26.9291,-1.15717)">
						<title>Sheet.20920</title>
						<path d="M0 94.94 C7.23 91.95 12.34 84.66 12.34 76.13 C12.34 67.61 7.23 60.31 0 57.33 C2.25 56.4 4.72 55.88
									 7.29 55.88 C18.14 55.88 26.93 64.95 26.93 76.13 C26.93 87.31 18.14 96.38 7.29 96.38 C4.72 96.38
									 2.25 95.87 0 94.94 Z" class="st6"/>
					</g>
				</g>
			</g>
		</g>
	</g>
</svg>
